src/assets/curso/temas/tema6/img_14.svg

<svg height="132" viewBox="0 0 132 132" width="132" xmlns="http://www.w3.org/2000/svg"><path d="m0 0h132v132h-132z" fill="none"/><g transform="translate(16.75 16.931)"><path d="m53 16.122v59.317h9.366v-59.317a3.122 3.122 0 0 0 -3.122-3.122h-3.122a3.122 3.122 0 0 0 -3.122 3.122z" fill="#919191" transform="translate(29.03 7.152)"/><path d="m58.122 15h-1.561a1.561 1.561 0 0 0 -1.561 1.561v57.756h6.244v-56.2a3.122 3.122 0 0 0 -3.122-3.117z" fill="#828282" transform="translate(30.152 8.274)"/><path d="m53 20h9.366v18.732h-9.366z" fill="#ffff8c" transform="translate(29.03 11.079)"/><path d="m55 20h6.244v18.732h-6.244z" fill="#fff56e" transform="translate(30.152 11.079)"/><rect fill="#d88d6f" height="96.78" rx="2" width="71.805" x="2.421" y="1.421"/><rect fill="#cd7e5a" height="93.659" rx="2" width="68.683" x="5.543" y="4.543"/><path d="m0 0h82.732v62.439h-82.732z" fill="#f4faff" transform="matrix(0 1 -1 0 69.543 10.787)"/><path d="m18 1h21.854v6.244a3.122 3.122 0 0 1 -3.122 3.122h-15.61a3.122 3.122 0 0 1 -3.122-3.122z" fill="#919191" transform="translate(9.396 .421)"/><path d="m0 0h1.561a6.244 6.244 0 0 1 6.239 6.244v1.556h-1.556a6.244 6.244 0 0 1 -6.244-6.239z" fill="#aaf06e" transform="matrix(-1 0 -0 -1 38.323 29.518)"/><path d="m31.244 14h1.556v1.561a6.244 6.244 0 0 1 -6.239 6.239h-1.561v-1.556a6.244 6.244 0 0 1 6.244-6.244z" fill="#aaf06e" transform="translate(13.323 7.713)"/><path d="m33.488 27.683c0 2.156-2.8 3.122-6.244 3.122s-6.244-.966-6.244-3.122 2.8-4.683 6.244-4.683 6.244 2.527 6.244 4.683z" fill="#cd7e5a" transform="translate(11.079 12.762)"/><path d="m18 3v3.122a3.122 3.122 0 0 0 3.122 3.122h15.61a3.122 3.122 0 0 0 3.122-3.122v-3.122z" fill="#828282" transform="translate(9.396 1.543)"/><path d="m53 53 3.512 11.512h2.341l3.513-11.512z" fill="#ffff8c" transform="translate(29.03 29.591)"/><path d="m55 53 .39 11.512h2.341l3.513-11.512z" fill="#fff56e" transform="translate(30.152 29.591)"/><path d="m8.25 32.421a1.171 1.171 0 0 0 1.171 1.171h24.979a1.171 1.171 0 1 0 0-2.341h-24.979a1.171 1.171 0 0 0 -1.171 1.17z" transform="translate(3.927 17.39)"/><path d="m8.25 36.421a1.171 1.171 0 0 0 1.171 1.171h49.951a1.171 1.171 0 1 0 0-2.341h-49.951a1.171 1.171 0 0 0 -1.171 1.17z" transform="translate(3.927 19.634)"/><path d="m59.372 39.25h-49.951a1.171 1.171 0 1 0 0 2.341h49.951a1.171 1.171 0 1 0 0-2.341z" transform="translate(3.927 21.878)"/><path d="m54.323 51.25h-35.9a1.171 1.171 0 0 0 0 2.341h35.9a1.171 1.171 0 0 0 0-2.341z" transform="translate(8.976 28.61)"/><path d="m54.323 55.25h-35.9a1.171 1.171 0 0 0 0 2.341h35.9a1.171 1.171 0 0 0 0-2.341z" transform="translate(8.976 30.854)"/><path d="m17.975 51.823a1.171 1.171 0 0 0 -1.656 0l-4.691 4.691-1.38-1.38a1.171 1.171 0 1 0 -1.655 1.656l2.207 2.21a1.169 1.169 0 0 0 1.655 0l5.52-5.518a1.171 1.171 0 0 0 0-1.656z" transform="translate(3.927 28.739)"/><path d="m54.323 43.25h-35.9a1.171 1.171 0 0 0 0 2.341h35.9a1.171 1.171 0 0 0 0-2.341z" transform="translate(8.976 24.122)"/><path d="m54.323 47.25h-35.9a1.171 1.171 0 0 0 0 2.341h35.9a1.171 1.171 0 0 0 0-2.341z" transform="translate(8.976 26.366)"/><path d="m17.975 43.823a1.171 1.171 0 0 0 -1.656 0l-4.691 4.691-1.38-1.38a1.171 1.171 0 1 0 -1.655 1.656l2.207 2.21a1.169 1.169 0 0 0 1.655 0l5.52-5.518a1.171 1.171 0 0 0 0-1.656z" transform="translate(3.927 24.251)"/><path d="m26.665 23.4h.39v4.01c-3.59.518-6.244 3.3-6.244 5.746 0 2.688 2.772 4.293 7.415 4.293s7.415-1.6 7.415-4.293c0-2.446-2.654-5.228-6.244-5.746v-4.01h.39a7.424 7.424 0 0 0 7.413-7.418v-1.561a1.171 1.171 0 0 0 -1.17-1.171h-1.56a7.4 7.4 0 0 0 -6.244 3.45 7.4 7.4 0 0 0 -6.244-3.451h-1.561a1.171 1.171 0 0 0 -1.171 1.171v1.561a7.424 7.424 0 0 0 7.415 7.419zm2.735-2.735a5.079 5.079 0 0 1 5.073-5.073h.39v.39a5.079 5.079 0 0 1 -5.073 5.073h-.39zm-1.174 8.975c2.894 0 5.073 2.131 5.073 3.512 0 2.7-10.146 2.7-10.146 0-.001-1.381 2.179-3.512 5.073-3.512zm-6.635-14.049h.39a5.079 5.079 0 0 1 5.073 5.073v.39h-.39a5.079 5.079 0 0 1 -5.073-5.073z" transform="translate(10.098 7.293)"/><path d="m71.1.25h-65.557a4.3 4.3 0 0 0 -4.293 4.293v90.536a4.3 4.3 0 0 0 4.293 4.293h65.557a4.3 4.3 0 0 0 4.3-4.293v-90.536a4.3 4.3 0 0 0 -4.3-4.293zm-20.679 7.415v-.39h1.951a1.954 1.954 0 0 1 1.951 1.951v.39h-4.394a4.229 4.229 0 0 0 .492-1.951zm-26.147 8.975h28.1a4.3 4.3 0 0 0 4.293-4.293v-.39h11.705v80.39h-60.098v-80.39h11.708v.39a4.3 4.3 0 0 0 4.293 4.293zm-1.951-4.293v-.39h32v.39a1.954 1.954 0 0 1 -1.951 1.953h-28.1a1.954 1.954 0 0 1 -1.949-1.952zm6.244-9.756h19.512v5.074a1.954 1.954 0 0 1 -1.951 1.951h-15.61a1.954 1.954 0 0 1 -1.951-1.951zm-6.244 7.025v-.39a1.954 1.954 0 0 1 1.951-1.951h1.951v.39a4.229 4.229 0 0 0 .492 1.951zm50.732 85.463a1.954 1.954 0 0 1 -1.955 1.951h-65.557a1.954 1.954 0 0 1 -1.951-1.951v-90.536a1.954 1.954 0 0 1 1.951-1.952h20.683v2.342h-1.952a4.3 4.3 0 0 0 -4.293 4.293v.39h-12.881a1.171 1.171 0 0 0 -1.171 1.171v82.731a1.171 1.171 0 0 0 1.171 1.171h62.443a1.171 1.171 0 0 0 1.171-1.171v-82.731a1.171 1.171 0 0 0 -1.171-1.171h-12.878v-.39a4.3 4.3 0 0 0 -4.293-4.293h-1.951v-2.342h20.679a1.954 1.954 0 0 1 1.951 1.951z"/><path d="m65.128 18.494h-1.171v-1.951a4.3 4.3 0 0 0 -4.293-4.293h-3.121a4.3 4.3 0 0 0 -4.293 4.293v59.317a1.193 1.193 0 0 0 .067.39l4.616 13.078v2.142a1.171 1.171 0 0 0 2.341 0v-2.142l4.616-13.078a1.193 1.193 0 0 0 .067-.39v-55.025h1.171a1.171 1.171 0 0 1 1.172 1.171v17.951a1.171 1.171 0 1 0 2.341 0v-17.951a3.515 3.515 0 0 0 -3.512-3.512zm-7.028 67.122-3.025-8.586h6.057zm3.512-10.927h-7.021v-30.439h7.024zm0-32.78h-7.021v-16.391h7.024zm0-18.732h-7.021v-6.634a1.954 1.954 0 0 1 1.951-1.951h3.122a1.954 1.954 0 0 1 1.951 1.951z" transform="translate(28.61 6.732)"/></g></svg>

<svg xmlns="http://www.w3.org/2000/svg" width="132" height="132" viewBox="0 0 132 132"><g transform="translate(-13184.246 7729.6)"><rect width="132" height="132" transform="translate(13184.246 -7729.6)" fill="none"/><g transform="translate(13200.996 -7712.669)"><path d="M53,16.122V75.439h9.366V16.122A3.122,3.122,0,0,0,59.244,13H56.122A3.122,3.122,0,0,0,53,16.122Z" transform="translate(29.03 7.152)" fill="#919191"/><path d="M58.122,15H56.561A1.561,1.561,0,0,0,55,16.561V74.317h6.244v-56.2A3.122,3.122,0,0,0,58.122,15Z" transform="translate(30.152 8.274)" fill="#828282"/><path d="M53,20h9.366V38.732H53Z" transform="translate(29.03 11.079)" fill="#ffff8c"/><path d="M55,20h6.244V38.732H55Z" transform="translate(30.152 11.079)" fill="#fff56e"/><rect width="71.805" height="96.78" rx="2" transform="translate(2.421 1.421)" fill="#d88d6f"/><rect width="68.683" height="93.659" rx="2" transform="translate(5.543 4.543)" fill="#cd7e5a"/><path d="M0,0H82.732V62.439H0Z" transform="translate(69.543 10.787) rotate(90)" fill="#f4faff"/><path d="M18,1H39.854V7.244a3.122,3.122,0,0,1-3.122,3.122H21.122A3.122,3.122,0,0,1,18,7.244Z" transform="translate(9.396 0.421)" fill="#919191"/><path d="M0,0H1.561A6.244,6.244,0,0,1,7.8,6.244V7.8H6.244A6.244,6.244,0,0,1,0,1.561Z" transform="translate(38.323 29.518) rotate(180)" fill="#aaf06e"/><path d="M31.244,14H32.8v1.561A6.244,6.244,0,0,1,26.561,21.8H25V20.244A6.244,6.244,0,0,1,31.244,14Z" transform="translate(13.323 7.713)" fill="#aaf06e"/><path d="M33.488,27.683c0,2.156-2.8,3.122-6.244,3.122S21,29.839,21,27.683,23.8,23,27.244,23,33.488,25.527,33.488,27.683Z" transform="translate(11.079 12.762)" fill="#cd7e5a"/><path d="M18,3V6.122a3.122,3.122,0,0,0,3.122,3.122h15.61a3.122,3.122,0,0,0,3.122-3.122V3Z" transform="translate(9.396 1.543)" fill="#828282"/><path d="M53,53l3.512,11.512h2.341L62.366,53Z" transform="translate(29.03 29.591)" fill="#ffff8c"/><path d="M55,53l.39,11.512h2.341L61.244,53Z" transform="translate(30.152 29.591)" fill="#fff56e"/><path d="M8.25,32.421a1.171,1.171,0,0,0,1.171,1.171H34.4a1.171,1.171,0,1,0,0-2.341H9.421A1.171,1.171,0,0,0,8.25,32.421Z" transform="translate(3.927 17.39)"/><path d="M8.25,36.421a1.171,1.171,0,0,0,1.171,1.171H59.372a1.171,1.171,0,1,0,0-2.341H9.421A1.171,1.171,0,0,0,8.25,36.421Z" transform="translate(3.927 19.634)"/><path d="M59.372,39.25H9.421a1.171,1.171,0,1,0,0,2.341H59.372a1.171,1.171,0,1,0,0-2.341Z" transform="translate(3.927 21.878)"/><path d="M54.323,51.25h-35.9a1.171,1.171,0,0,0,0,2.341h35.9a1.171,1.171,0,0,0,0-2.341Z" transform="translate(8.976 28.61)"/><path d="M54.323,55.25h-35.9a1.171,1.171,0,0,0,0,2.341h35.9a1.171,1.171,0,0,0,0-2.341Z" transform="translate(8.976 30.854)"/><path d="M17.975,51.823a1.171,1.171,0,0,0-1.656,0l-4.691,4.691-1.38-1.38A1.171,1.171,0,1,0,8.593,56.79L10.8,59a1.169,1.169,0,0,0,1.655,0l5.52-5.518a1.171,1.171,0,0,0,0-1.656Z" transform="translate(3.927 28.739)"/><path d="M54.323,43.25h-35.9a1.171,1.171,0,0,0,0,2.341h35.9a1.171,1.171,0,0,0,0-2.341Z" transform="translate(8.976 24.122)"/><path d="M54.323,47.25h-35.9a1.171,1.171,0,0,0,0,2.341h35.9a1.171,1.171,0,0,0,0-2.341Z" transform="translate(8.976 26.366)"/><path d="M17.975,43.823a1.171,1.171,0,0,0-1.656,0l-4.691,4.691-1.38-1.38A1.171,1.171,0,1,0,8.593,48.79L10.8,51a1.169,1.169,0,0,0,1.655,0l5.52-5.518a1.171,1.171,0,0,0,0-1.656Z" transform="translate(3.927 24.251)"/><path d="M26.665,23.4h.39v4.01c-3.59.518-6.244,3.3-6.244,5.746,0,2.688,2.772,4.293,7.415,4.293s7.415-1.6,7.415-4.293c0-2.446-2.654-5.228-6.244-5.746V23.4h.39A7.424,7.424,0,0,0,37.2,15.982V14.421A1.171,1.171,0,0,0,36.03,13.25H34.47A7.4,7.4,0,0,0,28.226,16.7a7.4,7.4,0,0,0-6.244-3.451H20.421a1.171,1.171,0,0,0-1.171,1.171v1.561A7.424,7.424,0,0,0,26.665,23.4ZM29.4,20.665a5.079,5.079,0,0,1,5.073-5.073h.39v.39a5.079,5.079,0,0,1-5.073,5.073H29.4ZM28.226,29.64c2.894,0,5.073,2.131,5.073,3.512,0,2.7-10.146,2.7-10.146,0C23.152,31.771,25.332,29.64,28.226,29.64ZM21.591,15.591h.39a5.079,5.079,0,0,1,5.073,5.073v.39h-.39a5.079,5.079,0,0,1-5.073-5.073Z" transform="translate(10.098 7.293)"/><path d="M71.1.25H5.543A4.3,4.3,0,0,0,1.25,4.543V95.079a4.3,4.3,0,0,0,4.293,4.293H71.1A4.3,4.3,0,0,0,75.4,95.079V4.543A4.3,4.3,0,0,0,71.1.25ZM50.421,7.665v-.39h1.951a1.954,1.954,0,0,1,1.951,1.951v.39H49.929A4.229,4.229,0,0,0,50.421,7.665ZM24.274,16.64h28.1a4.3,4.3,0,0,0,4.293-4.293v-.39H68.372v80.39H8.274V11.957H19.982v.39a4.3,4.3,0,0,0,4.293,4.293Zm-1.951-4.293v-.39h32v.39A1.954,1.954,0,0,1,52.372,14.3h-28.1A1.954,1.954,0,0,1,22.323,12.348Zm6.244-9.756H48.079V7.665a1.954,1.954,0,0,1-1.951,1.951H30.518a1.954,1.954,0,0,1-1.951-1.951ZM22.323,9.616v-.39a1.954,1.954,0,0,1,1.951-1.951h1.951v.39a4.229,4.229,0,0,0,.492,1.951ZM73.055,95.079A1.954,1.954,0,0,1,71.1,97.03H5.543a1.954,1.954,0,0,1-1.951-1.951V4.543A1.954,1.954,0,0,1,5.543,2.591H26.226V4.933H24.274a4.3,4.3,0,0,0-4.293,4.293v.39H7.1a1.171,1.171,0,0,0-1.171,1.171V93.518A1.171,1.171,0,0,0,7.1,94.689H69.543a1.171,1.171,0,0,0,1.171-1.171V10.787a1.171,1.171,0,0,0-1.171-1.171H56.665v-.39a4.3,4.3,0,0,0-4.293-4.293H50.421V2.591H71.1a1.954,1.954,0,0,1,1.951,1.951Z"/><path d="M65.128,18.494H63.957V16.543a4.3,4.3,0,0,0-4.293-4.293H56.543a4.3,4.3,0,0,0-4.293,4.293V75.86a1.193,1.193,0,0,0,.067.39l4.616,13.078V91.47a1.171,1.171,0,0,0,2.341,0V89.328L63.89,76.25a1.193,1.193,0,0,0,.067-.39V20.835h1.171A1.171,1.171,0,0,1,66.3,22.006V39.957a1.171,1.171,0,1,0,2.341,0V22.006a3.515,3.515,0,0,0-3.512-3.512ZM58.1,85.616,55.075,77.03h6.057Zm3.512-10.927H54.591V44.25h7.024Zm0-32.78H54.591V25.518h7.024Zm0-18.732H54.591V16.543a1.954,1.954,0,0,1,1.951-1.951h3.122a1.954,1.954,0,0,1,1.951,1.951Z" transform="translate(28.61 6.732)"/></g></g></svg>
